X:200
T:Old Joe Clark
M:2/4
K:D
L:1/8
 "A" EF GF | ED C2 | EF GF | E2 z2 |
w: Old Joe Clark, the preach-er's son, Preached all over the plain. The -
 EF GF | ED CC | A,C "G" B,G, | "A" A,4 ||
w: on-ly text he ev-er knew was "high, low, jack, and game."
 "A" A,A,/A,/ A,2 | ED C2 | A,A,/A,/ A,A, | "G" G,4 |
w: Fare thee - well, Old Joe Clark, Fare thee - well I say.
 "A" A,A, A,A, | ED C>C | A,C "G" B,G, | "A" A,4 |]
w: fol-low you ten thou-sand miles to hear your ban-jo play.

% ...and here's the auto-transposed version:
